X: 19522
T: Jakob's Frolics
R: jig
M: 6/8
K: Gmajor
|:B3 dBG|E2c cAG|F2d dcA|B2g bgd|
B3 dBG|E2c cBA|d^cd efa|baf g3:|
|:g3b2d|cAF D3|dcA dcA|B3 ABd|
g3 bgd|cAF D2d|dcA fga|agf g3:|

